img/header/hurt.svg

<svg width="25" height="25" viewBox="0 0 25 25" fill="none" xmlns="http://www.w3.org/2000/svg">
<path d="M11.7469 5.16475L12.5 6.02678L13.2531 5.16475C14.0083 4.30027 14.7014 3.62075 15.5318 3.14594C16.3436 2.68176 17.3437 2.38184 18.75 2.38184C20.0874 2.38184 21.3571 2.82255 22.3035 3.87442C23.2587 4.93612 24 6.74922 24 9.7168C24 10.9906 23.3403 13.1276 21.4656 15.6274C19.674 18.0164 16.8096 20.6834 12.5 23.1535C8.19035 20.6834 5.32596 18.0164 3.5344 15.6274C1.65969 13.1276 1 10.9906 1 9.7168C1 6.74922 1.74129 4.93612 2.69652 3.87442C3.6429 2.82255 4.91262 2.38184 6.25 2.38184C7.65628 2.38184 8.65641 2.68176 9.46823 3.14594C10.2986 3.62075 10.9917 4.30027 11.7469 5.16475Z" fill="white" stroke="#2F2F2F" stroke-width="2"/>
</svg>

<svg width="25" height="25" viewBox="0 0 25 25" fill="none" xmlns="http://www.w3.org/2000/svg"><path d="M11.747 5.165l.753.862.753-.862c.755-.865 1.448-1.544 2.279-2.02.812-.463 1.812-.763 3.218-.763 1.337 0 2.607.44 3.553 1.492C23.26 4.936 24 6.75 24 9.717c0 1.274-.66 3.41-2.534 5.91-1.792 2.39-4.656 5.056-8.966 7.527-4.31-2.47-7.174-5.138-8.966-7.527C1.66 13.127 1 10.991 1 9.717c0-2.968.741-4.78 1.697-5.843.946-1.051 2.216-1.492 3.553-1.492 1.406 0 2.406.3 3.218.764.83.475 1.524 1.154 2.279 2.019z" fill="#fff" stroke="#2F2F2F" stroke-width="2"/></svg>1262 2.38184 6.25 2.38184C7.65628 2.38184 8.65641 2.68176 9.46823 3.14594C10.2986 3.62075 10.9917 4.30027 11.7469 5.16475Z" fill="white" stroke="#2F2F2F" stroke-width="2"/>
</svg>
